assets/Farmer/Dark/Flat/farmer_flat_dark.svg

<svg width="32" height="32" viewBox="0 0 32 32" fill="none" xmlns="http://www.w3.org/2000/svg">
<path d="M8 17.9947C7.99005 18.0029 7.98012 18.0111 7.97021 18.0193L7.97006 17.99C6.43116 19.2692 5.2492 20.9656 4.59182 22.9038C4.20821 24.0217 4 25.2513 4 26.5V29.97H4.03L4.03006 29.98L6 30H8L9 24L8 17.9947Z" fill="#00D26A"/>
<path d="M22 30H26V26.5C26 23.0908 24.4417 20.038 22 18.0167L21 24L22 30Z" fill="#00D26A"/>
<path d="M20 16.6977L21 20L20 23L15 24L10 23L9 20L10 16.6833C11.4974 15.9202 13.1933 15.49 14.99 15.49C16.793 15.49 18.4963 15.9258 20 16.6977Z" fill="#00D26A"/>
<path d="M10 16.6833C9.28444 17.048 8.61422 17.4887 8 17.9948V30.0001H22V18.0168C21.3857 17.5082 20.7154 17.065 20 16.6978V22.5001C20 22.7762 19.7761 23.0001 19.5 23.0001H10.5C10.2239 23.0001 10 22.7762 10 22.5001V16.6833Z" fill="#0084CE"/>
<path d="M11 27C11 26.4477 11.4477 26 12 26H18C18.5523 26 19 26.4477 19 27V30H11V27Z" fill="#46A4FB"/>
<path d="M11.87 21.53L14.99 19.34L18.11 21.53C18.48 21.79 18.99 21.53 18.99 21.07V16.24C17.75 15.76 16.4 15.49 14.99 15.49C13.58 15.49 12.23 15.76 10.99 16.24V21.08C10.99 21.52 11.5 21.79 11.87 21.53Z" fill="#008463"/>
<path d="M15.91 19.68L15.26 20.26C15.1 20.4 14.87 20.4 14.71 20.26L14.06 19.68C13.34 19.03 12.92 18.1 12.92 17.13V14.04C12.92 12.9 13.84 11.98 14.98 11.98C16.12 11.98 17.04 12.9 17.04 14.04V17.13C17.04 18.1 16.63 19.03 15.91 19.68Z" fill="white"/>
<path d="M14.9901 18.66C13.8501 18.66 12.9301 17.74 12.9301 16.6V14.04C12.9301 12.9 13.8501 11.98 14.9901 11.98C16.1301 11.98 17.0501 12.9 17.0501 14.04V16.6C17.0401 17.74 16.1201 18.66 14.9901 18.66Z" fill="#452829"/>
<path d="M20.4751 4.98999H20.48C22.96 4.98999 24.98 6.99999 24.98 9.48999C24.98 11.97 22.96 13.99 20.48 13.99H9.51001C7.03001 13.99 5.01001 11.98 5.01001 9.48999C5.01001 7.01967 7.00435 5.00576 9.48088 4.99008L10.5 4.5L10.2696 4C11.4865 2.74247 13.1764 2 14.98 2C16.7832 2 18.4736 2.7415 19.6888 4L19.5 4.5L20.4751 4.98999Z" fill="#7D4533"/>
<path d="M20.4756 4.98999C20.2436 4.63205 19.9798 4.30301 19.6899 4H10.2699C9.98257 4.30075 9.71752 4.63276 9.48376 4.99006C9.4925 4.99002 9.50123 4.98999 9.50998 4.98999H20.4756Z" fill="#533566"/>
<path d="M9.12 12.8699L9.13 10.1799C10.25 10.1499 11.37 10.1499 12.47 10.1499V15.5799L10.58 14.9299C9.71 14.6199 9.12 13.7999 9.12 12.8699Z" fill="black"/>
<path d="M17.5 15.5899V10.2399C18.6099 10.2699 19.7299 10.3099 20.8498 10.3499L20.85 12.8799C20.85 13.8099 20.27 14.6399 19.39 14.9399L17.5 15.5899Z" fill="black"/>
<path d="M11.76 10.5799C11.76 11.5022 11.0124 12.2499 10.09 12.2499C9.16773 12.2499 8.42004 11.5022 8.42004 10.5799C8.42004 9.6576 9.16773 8.90991 10.09 8.90991C11.0124 8.90991 11.76 9.6576 11.76 10.5799Z" fill="#4E3233"/>
<path d="M21.55 10.5799C21.55 11.5022 20.8023 12.2499 19.88 12.2499C18.9576 12.2499 18.21 11.5022 18.21 10.5799C18.21 9.6576 18.9576 8.90991 19.88 8.90991C20.8023 8.90991 21.55 9.6576 21.55 10.5799Z" fill="#4E3233"/>
<path d="M20.23 8.95005L20.24 8.84005C20.28 7.75005 19.41 6.80005 18.31 6.80005H11.81C10.67 6.80005 9.77999 7.77005 9.87999 8.90005L10.18 13.55C10.44 15.52 12.12 16.98 14.1 16.98H15.05H16C17.98 16.98 19.66 15.51 19.92 13.55L20.23 8.95005Z" fill="#573739"/>
<path d="M11.18 10.2699C11.33 9.64994 11.89 9.18994 12.56 9.18994C13.25 9.18994 13.83 9.68994 13.95 10.3399C13.98 10.4899 13.87 10.6199 13.72 10.6199H11.45C11.26 10.6199 11.13 10.4499 11.18 10.2699Z" fill="white"/>
<path d="M18.82 10.2699C18.67 9.64994 18.11 9.18994 17.44 9.18994C16.74 9.18994 16.17 9.68994 16.05 10.3399C16.02 10.4899 16.13 10.6199 16.28 10.6199H18.55C18.73 10.6199 18.86 10.4499 18.82 10.2699Z" fill="white"/>
<path d="M11.86 10.37C11.86 9.86996 12.27 9.45996 12.77 9.45996C13.27 9.45996 13.68 9.86996 13.68 10.37C13.68 10.45 13.67 10.53 13.65 10.61H11.89C11.87 10.53 11.86 10.45 11.86 10.37Z" fill="#7D4533"/>
<path d="M18.1399 10.37C18.1399 9.86996 17.7299 9.45996 17.2299 9.45996C16.7199 9.45996 16.3199 9.86996 16.3199 10.37C16.3199 10.45 16.3299 10.53 16.3499 10.61H18.1099C18.1299 10.53 18.1399 10.45 18.1399 10.37Z" fill="#7D4533"/>
<path d="M12.77 9.85986C13.06 9.85986 13.29 10.0899 13.29 10.3799C13.29 10.4599 13.26 10.5499 13.23 10.6199H12.31C12.27 10.5499 12.25 10.4699 12.25 10.3799C12.25 10.0899 12.48 9.85986 12.77 9.85986Z" fill="black"/>
<path d="M17.23 9.85986C16.94 9.85986 16.71 10.0899 16.71 10.3799C16.71 10.4599 16.73 10.5499 16.77 10.6199H17.69C17.73 10.5499 17.75 10.4699 17.75 10.3799C17.75 10.0899 17.52 9.85986 17.23 9.85986Z" fill="black"/>
<path d="M12.61 10.0199C12.61 10.1082 12.5384 10.1799 12.45 10.1799C12.3617 10.1799 12.29 10.1082 12.29 10.0199C12.29 9.9315 12.3617 9.85986 12.45 9.85986C12.5384 9.85986 12.61 9.9315 12.61 10.0199Z" fill="white"/>
<path d="M17.11 10.0199C17.11 10.1082 17.0384 10.1799 16.95 10.1799C16.8617 10.1799 16.79 10.1082 16.79 10.0199C16.79 9.9315 16.8617 9.85986 16.95 9.85986C17.0384 9.85986 17.11 9.9315 17.11 10.0199Z" fill="white"/>
<path d="M14.68 10.3001L14.15 12.0101C14.04 12.3601 14.3 12.7101 14.67 12.7101H15.45C15.82 12.7101 16.08 12.3601 15.97 12.0101L15.45 10.3001C15.33 9.92014 14.8 9.92014 14.68 10.3001Z" fill="#3D2123"/>
<path d="M15 13.6799C14.46 13.6799 13.95 13.5499 13.52 13.3199C13.37 13.2399 13.22 13.4099 13.31 13.5499C13.67 14.0999 14.29 14.4699 15 14.4699C15.71 14.4699 16.33 14.0999 16.69 13.5499C16.78 13.4099 16.62 13.2499 16.48 13.3199C16.05 13.5499 15.54 13.6799 15 13.6799Z" fill="#290118"/>
<path d="M11.3316 8.34396C11.2123 8.43695 11.191 8.60906 11.284 8.72837C11.3769 8.84768 11.5491 8.86902 11.6684 8.77602L11.7631 8.71392C11.8319 8.67262 11.9353 8.61718 12.0681 8.56474C12.3337 8.45985 12.7127 8.36845 13.168 8.42202C13.3182 8.43969 13.4543 8.33223 13.472 8.18199C13.4897 8.03176 13.3822 7.89564 13.232 7.87797C12.6673 7.81153 12.1963 7.92513 11.8669 8.05524C11.7021 8.1203 11.5718 8.18986 11.4813 8.24419L11.3316 8.34396Z" fill="black"/>
<path d="M18.7161 8.72837C18.8091 8.60906 18.7876 8.43681 18.6682 8.34382L18.6665 8.34247L18.6636 8.34022L18.6546 8.33355C18.6473 8.32817 18.6374 8.32099 18.6248 8.31229C18.5997 8.29489 18.5641 8.27139 18.5188 8.24419C18.4282 8.18986 18.2979 8.1203 18.1332 8.05524C17.8037 7.92513 17.3327 7.81153 16.768 7.87797C16.6178 7.89564 16.5104 8.03176 16.528 8.18199C16.5457 8.33223 16.6818 8.43969 16.8321 8.42202C17.2874 8.36845 17.6664 8.45985 17.9319 8.56474C18.0647 8.61718 18.1681 8.67262 18.2369 8.71392C18.2713 8.73453 18.2968 8.7515 18.3129 8.76262C18.3209 8.76818 18.3265 8.77226 18.3297 8.77459L18.3326 8.77674C18.4519 8.86891 18.6233 8.84737 18.7161 8.72837Z" fill="black"/>
<path d="M17.47 7.60005H19.85C19.5 7.12005 18.94 6.80005 18.31 6.80005H15.76C16.18 7.30005 16.81 7.60005 17.47 7.60005Z" fill="black"/>
<path d="M27 23C27.55 23 28 23.4103 28 23.9119V26H26V23.9119C26 23.4103 26.44 23 27 23Z" fill="#422426"/>
<path d="M26 21.76H25V25.76H26V21.76Z" fill="#7D4533"/>
<path d="M28.4608 10.99C28.1912 11.01 27.9914 11.24 27.9914 11.51V15.96C27.9914 16.5 27.582 16.96 27.0428 16.99C26.4736 17.02 25.9943 16.56 25.9943 15.99V11.51C25.9943 11.24 25.7946 11.01 25.525 10.99C25.2354 10.97 24.9957 11.2 24.9957 11.49V15.96C24.9957 16.5 24.5863 16.96 24.0471 16.99C23.4779 17.02 22.9986 16.56 22.9986 15.99V11.51C22.9986 11.24 22.7989 11.01 22.5292 10.99C22.2397 10.97 22 11.2 22 11.49V18.57C22 19.35 22.6291 20 23.408 20H24.7461V21.76C24.7461 21.88 24.8459 21.98 24.9658 21.98H26.0342C26.1541 21.98 26.2539 21.88 26.2539 21.76V20H27.592C28.3709 20 29 19.35 29 18.57V11.49C28.99 11.2 28.7504 10.97 28.4608 10.99Z" fill="#D3D3D3"/>
<path d="M24.2091 24.76C23.8364 24.76 23.5182 25.08 23.5091 25.48C23.5 25.75 23.6273 25.99 23.8091 26.13C23.6273 26.26 23.5 26.49 23.5 26.75C23.5 27.01 23.6182 27.24 23.8091 27.37C23.6273 27.5 23.5 27.73 23.5 27.99C23.5 28.25 23.6182 28.48 23.8091 28.61C23.6182 28.75 23.5 28.99 23.5091 29.26C23.5182 29.68 23.8364 30 24.2091 30H27.2091C27.6455 30 28 29.61 28 29.13V25.62C28 25.14 27.6455 24.75 27.2091 24.75H24.2091V24.76Z" fill="#573739"/>
</svg>

<svg xmlns="http://www.w3.org/2000/svg" width="32" height="32" fill="none"><path fill="#00D26A" d="m8 17.995-.03.024v-.029a10.983 10.983 0 0 0-3.378 4.914A11.149 11.149 0 0 0 4 26.5v3.47h.03v.01L6 30h2l1-6-1-6.005ZM22 30h4v-3.5c0-3.41-1.558-6.462-4-8.483L21 24l1 6ZM20 16.698 21 20l-1 3-5 1-5-1-1-3 1-3.317a10.958 10.958 0 0 1 4.99-1.193c1.803 0 3.506.436 5.01 1.208Z"/><path fill="#0084CE" d="M10 16.683c-.716.365-1.386.806-2 1.312V30h14V18.017a11.047 11.047 0 0 0-2-1.32V22.5a.5.5 0 0 1-.5.5h-9a.5.5 0 0 1-.5-.5v-5.817Z"/><path fill="#46A4FB" d="M11 27a1 1 0 0 1 1-1h6a1 1 0 0 1 1 1v3h-8v-3Z"/><path fill="#008463" d="m11.87 21.53 3.12-2.19 3.12 2.19c.37.26.88 0 .88-.46v-4.83c-1.24-.48-2.59-.75-4-.75-1.41 0-2.76.27-4 .75v4.84c0 .44.51.71.88.45Z"/><path fill="#fff" d="m15.91 19.68-.65.58c-.16.14-.39.14-.55 0l-.65-.58a3.449 3.449 0 0 1-1.14-2.55v-3.09c0-1.14.92-2.06 2.06-2.06 1.14 0 2.06.92 2.06 2.06v3.09c0 .97-.41 1.9-1.13 2.55Z"/><path fill="#452829" d="M14.99 18.66c-1.14 0-2.06-.92-2.06-2.06v-2.56c0-1.14.92-2.06 2.06-2.06 1.14 0 2.06.92 2.06 2.06v2.56a2.07 2.07 0 0 1-2.06 2.06Z"/><path fill="#7D4533" d="M20.475 4.99h.005a4.5 4.5 0 0 1 4.5 4.5c0 2.48-2.02 4.5-4.5 4.5H9.51a4.5 4.5 0 0 1-.03-9l1.02-.49-.23-.5a6.545 6.545 0 0 1 9.42 0l-.19.5.975.49Z"/><path fill="#533566" d="M20.476 4.99A6.712 6.712 0 0 0 19.69 4h-9.42c-.287.3-.552.633-.786.99H20.476Z"/><path fill="#000" d="m9.12 12.87.01-2.69c1.12-.03 2.24-.03 3.34-.03v5.43l-1.89-.65a2.19 2.19 0 0 1-1.46-2.06ZM17.5 15.59v-5.35c1.11.03 2.23.07 3.35.11v2.53c0 .93-.58 1.76-1.46 2.06l-1.89.65Z"/><path fill="#4E3233" d="M11.76 10.58a1.67 1.67 0 1 1-3.34 0 1.67 1.67 0 0 1 3.34 0ZM21.55 10.58a1.67 1.67 0 1 1-3.34 0 1.67 1.67 0 0 1 3.34 0Z"/><path fill="#573739" d="m20.23 8.95.01-.11c.04-1.09-.83-2.04-1.93-2.04h-6.5c-1.14 0-2.03.97-1.93 2.1l.3 4.65a3.948 3.948 0 0 0 3.92 3.43H16c1.98 0 3.66-1.47 3.92-3.43l.31-4.6Z"/><path fill="#fff" d="M11.18 10.27a1.417 1.417 0 0 1 2.77.07.23.23 0 0 1-.23.28h-2.27c-.19 0-.32-.17-.27-.35ZM18.82 10.27c-.15-.62-.71-1.08-1.38-1.08-.7 0-1.27.5-1.39 1.15-.03.15.08.28.23.28h2.27c.18 0 .31-.17.27-.35Z"/><path fill="#7D4533" d="M11.86 10.37c0-.5.41-.91.91-.91a.913.913 0 0 1 .88 1.15h-1.76a.986.986 0 0 1-.03-.24ZM18.14 10.37c0-.5-.41-.91-.91-.91-.51 0-.91.41-.91.91 0 .08.01.16.03.24h1.76c.02-.08.03-.16.03-.24Z"/><path fill="#000" d="M12.77 9.86c.29 0 .52.23.52.52 0 .08-.03.17-.06.24h-.92a.516.516 0 0 1 .46-.76ZM17.23 9.86a.516.516 0 0 0-.46.76h.92a.516.516 0 0 0-.46-.76Z"/><path fill="#fff" d="M12.61 10.02a.16.16 0 1 1-.32 0 .16.16 0 0 1 .32 0ZM17.11 10.02a.16.16 0 1 1-.32 0 .16.16 0 0 1 .32 0Z"/><path fill="#3D2123" d="m14.68 10.3-.53 1.71c-.11.35.15.7.52.7h.78c.37 0 .63-.35.52-.7l-.52-1.71a.403.403 0 0 0-.77 0Z"/><path fill="#290118" d="M15 13.68c-.54 0-1.05-.13-1.48-.36-.15-.08-.3.09-.21.23.36.55.98.92 1.69.92s1.33-.37 1.69-.92c.09-.14-.07-.3-.21-.23-.43.23-.94.36-1.48.36Z"/><path fill="#000" d="M11.332 8.344a.274.274 0 0 0 .336.432l.095-.062a2.264 2.264 0 0 1 1.405-.292.274.274 0 0 0 .064-.544 2.812 2.812 0 0 0-1.75.366l-.15.1ZM18.716 8.728a.274.274 0 0 0-.048-.384l-.002-.002-.002-.002-.01-.006a1.945 1.945 0 0 0-.136-.09 2.813 2.813 0 0 0-1.75-.366.274.274 0 0 0 .064.544 2.264 2.264 0 0 1 1.405.292c.034.02.06.037.076.049l.017.012.003.002c.119.092.29.07.383-.049ZM17.47 7.6h2.38c-.35-.48-.91-.8-1.54-.8h-2.55c.42.5 1.05.8 1.71.8Z"/><path fill="#422426" d="M27 23c.55 0 1 .41 1 .912V26h-2v-2.088c0-.502.44-.912 1-.912Z"/><path fill="#7D4533" d="M26 21.76h-1v4h1v-4Z"/><path fill="#D3D3D3" d="M28.46 10.99c-.269.02-.469.25-.469.52v4.45c0 .54-.409 1-.948 1.03-.57.03-1.049-.43-1.049-1v-4.48c0-.27-.2-.5-.469-.52a.496.496 0 0 0-.53.5v4.47c0 .54-.409 1-.948 1.03-.57.03-1.048-.43-1.048-1v-4.48c0-.27-.2-.5-.47-.52a.496.496 0 0 0-.529.5v7.08c0 .78.63 1.43 1.408 1.43h1.338v1.76c0 .12.1.22.22.22h1.068c.12 0 .22-.1.22-.22V20h1.338c.779 0 1.408-.65 1.408-1.43v-7.08a.51.51 0 0 0-.54-.5Z"/><path fill="#573739" d="M24.21 24.76c-.374 0-.692.32-.7.72-.01.27.117.51.3.65a.765.765 0 0 0-.31.62c0 .26.118.49.31.62a.765.765 0 0 0-.31.62c0 .26.118.49.31.62-.192.14-.31.38-.3.65.008.42.326.74.7.74h3c.435 0 .79-.39.79-.87v-3.51c0-.48-.355-.87-.79-.87h-3v.01Z"/></svg>
